frontend/images/prima_pagina/icona_ferraris.svg

<svg width="48" height="48" viewBox="0 0 48 48" fill="none" xmlns="http://www.w3.org/2000/svg">
<path d="M28 19.3V16.9C29.1 16.4333 30.225 16.0833 31.375 15.85C32.525 15.6167 33.7333 15.5 35 15.5C35.8667 15.5 36.7167 15.5667 37.55 15.7C38.3833 15.8333 39.2 16 40 16.2V18.4C39.2 18.1 38.3917 17.875 37.575 17.725C36.7583 17.575 35.9 17.5 35 17.5C33.7333 17.5 32.5167 17.6583 31.35 17.975C30.1833 18.2917 29.0667 18.7333 28 19.3ZM28 30.3V27.85C29.1 27.3833 30.225 27.0417 31.375 26.825C32.525 26.6083 33.7333 26.5 35 26.5C35.8667 26.5 36.7167 26.5667 37.55 26.7C38.3833 26.8333 39.2 27 40 27.2V29.4C39.2 29.1 38.3917 28.875 37.575 28.725C36.7583 28.575 35.9 28.5 35 28.5C33.7333 28.5 32.5167 28.65 31.35 28.95C30.1833 29.25 29.0667 29.7 28 30.3ZM28 24.8V22.4C29.1 21.9333 30.225 21.5833 31.375 21.35C32.525 21.1167 33.7333 21 35 21C35.8667 21 36.7167 21.0667 37.55 21.2C38.3833 21.3333 39.2 21.5 40 21.7V23.9C39.2 23.6 38.3917 23.375 37.575 23.225C36.7583 23.075 35.9 23 35 23C33.7333 23 32.5167 23.1583 31.35 23.475C30.1833 23.7917 29.0667 24.2333 28 24.8ZM12.4 33C14.2 33 15.9417 33.2083 17.625 33.625C19.3083 34.0417 20.9667 34.6667 22.6 35.5V14.15C21.1 13.15 19.475 12.375 17.725 11.825C15.975 11.275 14.2 11 12.4 11C11.1333 11 9.89167 11.1583 8.675 11.475C7.45833 11.7917 6.23333 12.1833 5 12.65V34.35C6.03333 33.8833 7.20833 33.5417 8.525 33.325C9.84167 33.1083 11.1333 33 12.4 33ZM25.6 35.5C27.2667 34.6667 28.9 34.0417 30.5 33.625C32.1 33.2083 33.8 33 35.6 33C36.8667 33 38.175 33.1 39.525 33.3C40.875 33.5 42.0333 33.7667 43 34.1V12.65C41.8667 12.0833 40.6667 11.6667 39.4 11.4C38.1333 11.1333 36.8667 11 35.6 11C33.8 11 32.0583 11.275 30.375 11.825C28.6917 12.375 27.1 13.15 25.6 14.15V35.5ZM24.1 40C22.4 38.7333 20.55 37.7583 18.55 37.075C16.55 36.3917 14.5 36.05 12.4 36.05C11.1667 36.05 9.96667 36.2 8.8 36.5C7.63333 36.8 6.46667 37.1667 5.3 37.6C4.53333 37.9667 3.79167 37.9167 3.075 37.45C2.35833 36.9833 2 36.3167 2 35.45V12.3C2 11.8 2.11667 11.3417 2.35 10.925C2.58333 10.5083 2.93333 10.1833 3.4 9.95C4.8 9.28333 6.25833 8.79167 7.775 8.475C9.29167 8.15833 10.8333 8 12.4 8C14.5 8 16.5417 8.28333 18.525 8.85C20.5083 9.41667 22.3667 10.2833 24.1 11.45C25.8 10.2833 27.625 9.41667 29.575 8.85C31.525 8.28333 33.5333 8 35.6 8C37.1667 8 38.7 8.15833 40.2 8.475C41.7 8.79167 43.15 9.28333 44.55 9.95C45.0167 10.1833 45.375 10.5083 45.625 10.925C45.875 11.3417 46 11.8 46 12.3V35.45C46 36.3833 45.625 37.0917 44.875 37.575C44.125 38.0583 43.3833 38.0667 42.65 37.6C41.5167 37.1333 40.3667 36.7583 39.2 36.475C38.0333 36.1917 36.8333 36.05 35.6 36.05C33.5 36.05 31.4833 36.4 29.55 37.1C27.6167 37.8 25.8 38.7667 24.1 40Z" fill="#FDFCFA"/>
</svg>

<svg xmlns="http://www.w3.org/2000/svg" height="48" width="48"><path d="M28 19.3v-2.4q1.65-.7 3.375-1.05Q33.1 15.5 35 15.5q1.3 0 2.55.2 1.25.2 2.45.5v2.2q-1.2-.45-2.425-.675Q36.35 17.5 35 17.5q-1.9 0-3.65.475T28 19.3Zm0 11v-2.45q1.65-.7 3.375-1.025Q33.1 26.5 35 26.5q1.3 0 2.55.2 1.25.2 2.45.5v2.2q-1.2-.45-2.425-.675Q36.35 28.5 35 28.5q-1.9 0-3.65.45T28 30.3Zm0-5.5v-2.4q1.65-.7 3.375-1.05Q33.1 21 35 21q1.3 0 2.55.2 1.25.2 2.45.5v2.2q-1.2-.45-2.425-.675Q36.35 23 35 23q-1.9 0-3.65.475T28 24.8ZM12.4 33q2.7 0 5.225.625 2.525.625 4.975 1.875V14.15q-2.25-1.5-4.875-2.325Q15.1 11 12.4 11q-1.9 0-3.725.475Q6.85 11.95 5 12.65v21.7q1.55-.7 3.525-1.025Q10.5 33 12.4 33Zm13.2 2.5q2.5-1.25 4.9-1.875Q32.9 33 35.6 33q1.9 0 3.925.3t3.475.8V12.65q-1.7-.85-3.6-1.25-1.9-.4-3.8-.4-2.7 0-5.225.825-2.525.825-4.775 2.325ZM24.1 40q-2.55-1.9-5.55-2.925T12.4 36.05q-1.85 0-3.6.45t-3.5 1.1q-1.15.55-2.225-.15Q2 36.75 2 35.45V12.3q0-.75.35-1.375T3.4 9.95q2.1-1 4.375-1.475Q10.05 8 12.4 8q3.15 0 6.125.85t5.575 2.6q2.55-1.75 5.475-2.6Q32.5 8 35.6 8q2.35 0 4.6.475 2.25.475 4.35 1.475.7.35 1.075.975T46 12.3v23.15q0 1.4-1.125 2.125-1.125.725-2.225.025-1.7-.7-3.45-1.125-1.75-.425-3.6-.425-3.15 0-6.05 1.05T24.1 40ZM13.8 23.55Z"/></svg>
